X: 677
P: Longways for as many as will
M: 6/8
L: 1/8
K: Bb
f |\
b2f d>cB | c>dc A>GF | f>gf g>de | d>cB B2f |\
b2f d>cB | c>dc A>GF | f>gf =ecf | f2=e f2 :|
|: c |\
bfd gec | fdB ecA | dBG cAf | d>cB B2 :|

